components/ui-node-icon/src/unnest/unnest.large.svg

<svg width="32" height="32" viewBox="0 0 32 32" fill="none" xmlns="http://www.w3.org/2000/svg">
  <path fill-rule="evenodd" clip-rule="evenodd" d="M7.49997 5C7.49997 4.44772 7.05226 4 6.49997 4H5.49997C3.84312 4 2.49997 5.34315 2.49997 7V13.5858L1.99997 14.0858C1.21892 14.8668 1.21892 16.1332 1.99997 16.9142L2.49997 17.4142V25C2.49997 26.6569 3.84312 28 5.49997 28H6.49997C7.05226 28 7.49997 27.5523 7.49997 27C7.49997 26.4477 7.05226 26 6.49997 26H5.49997C4.94769 26 4.49997 25.5523 4.49997 25V17.4142C4.49997 16.8838 4.28926 16.3751 3.91418 16L3.41418 15.5L3.91418 15C4.28926 14.6249 4.49997 14.1162 4.49997 13.5858V7C4.49997 6.44772 4.94769 6 5.49997 6H6.49997C7.05226 6 7.49997 5.55228 7.49997 5ZM24 5C24 4.44772 24.4477 4 25 4H26C27.6569 4 29 5.34315 29 7V13.5858L29.5 14.0858C30.281 14.8668 30.281 16.1332 29.5 16.9142L29 17.4142V25C29 26.6569 27.6569 28 26 28H25C24.4477 28 24 27.5523 24 27C24 26.4477 24.4477 26 25 26H26C26.5523 26 27 25.5523 27 25V17.4142C27 16.8838 27.2107 16.3751 27.5858 16L28.0858 15.5L27.5858 15C27.2107 14.6249 27 14.1162 27 13.5858V7C27 6.44772 26.5523 6 26 6H25C24.4477 6 24 5.55228 24 5ZM17 7C17 6.44772 16.5523 6 16 6C15.4477 6 15 6.44772 15 7V25C15 25.5523 15.4477 26 16 26C16.5523 26 17 25.5523 17 25V7ZM20.6173 13.0761C20.991 12.9213 21.4211 13.0069 21.7071 13.2929L23.7071 15.2929C24.0976 15.6834 24.0976 16.3166 23.7071 16.7071L21.7071 18.7071C21.4211 18.9931 20.991 19.0787 20.6173 18.9239C20.2436 18.7691 20 18.4045 20 18V14C20 13.5955 20.2436 13.2309 20.6173 13.0761ZM10.2929 13.2929C10.5789 13.0069 11.009 12.9213 11.3827 13.0761C11.7564 13.2309 12 13.5955 12 14V18C12 18.4045 11.7564 18.7691 11.3827 18.9239C11.009 19.0787 10.5789 18.9931 10.2929 18.7071L8.29289 16.7071C7.90237 16.3166 7.90237 15.6834 8.29289 15.2929L10.2929 13.2929Z" fill="var(--tbl--colors--icons--clean--primary)"/>
</svg>

<svg xmlns="http://www.w3.org/2000/svg" width="32" height="32" fill="none" viewBox="0 0 32 32">
  <path fill="var(--tbl--colors--icons--clean--primary)" fill-rule="evenodd" d="M7.5 5a1 1 0 0 0-1-1h-1a3 3 0 0 0-3 3v6.586l-.5.5a2 2 0 0 0 0 2.828l.5.5V25a3 3 0 0 0 3 3h1a1 1 0 1 0 0-2h-1a1 1 0 0 1-1-1v-7.586A2 2 0 0 0 3.914 16l-.5-.5.5-.5a2 2 0 0 0 .586-1.414V7a1 1 0 0 1 1-1h1a1 1 0 0 0 1-1ZM24 5a1 1 0 0 1 1-1h1a3 3 0 0 1 3 3v6.586l.5.5a2 2 0 0 1 0 2.828l-.5.5V25a3 3 0 0 1-3 3h-1a1 1 0 1 1 0-2h1a1 1 0 0 0 1-1v-7.586A2 2 0 0 1 27.586 16l.5-.5-.5-.5A2 2 0 0 1 27 13.586V7a1 1 0 0 0-1-1h-1a1 1 0 0 1-1-1Zm-7 2a1 1 0 1 0-2 0v18a1 1 0 1 0 2 0V7Zm3.617 6.076a1 1 0 0 1 1.09.217l2 2a1 1 0 0 1 0 1.414l-2 2A1 1 0 0 1 20 18v-4a1 1 0 0 1 .617-.924Zm-10.324.217A1 1 0 0 1 12 14v4a1 1 0 0 1-1.707.707l-2-2a1 1 0 0 1 0-1.414l2-2Z" clip-rule="evenodd"/>
</svg>
